X: 19705
T: Jenny Lind
R: polka
M: 2/4
K: Dmajor
|:GB Ac|Bd g/^f/g|Af f/=e/f|Ge e/d/e|
GB Ac|Bd g/^f/g|Af f/=e/f|ee ez:|
|:e'c' c/=b/c'|bg g/^f/g|af f/=e/f|ge e/d/e|
e'c' c/=b/c'|bg g/^f/g|af f/=e/f|ee ez:|
|:FA GB|Ac f/^e/f|Ge e/^d/e|Fd d/c/d|
FA GB|Ac f/^e/.f|Ge e/^d/.e|dd dz:|
|:d'b b/^a/b|af f/^e/f|ge e/^d/e|fd d/c/d|
d'b b/^a/b|af f/^e/f|ge e/^d/e|dd dz:|
|:(3f/g/f/ =e/f/ bd|fe e/d/e|(3f/g/f/ =e/f/ _e'a|c'b b/a/b|
(3f/g/f/ =e/f/ bd|fe e/d/e|(3f/g/f/ =e/f/ _e'a|bb bz:|
|:a/b/c' a/b/c'|d'c g/^f/g|d'c d'c|a'f' c'/=b/c'|
a/b/c' a/b/c'|d'c g/^f/g|d'c ba/g/|ff fz:|
|:(3e/f/e/ ^d/e/ ac|ed d/c/d|(3e/f/e/ ^d/e/ =d'g|ba a/g/a|
(3e/f/e/ ^d/e/ ac|ed d/c/d|(3e/f/e/ ^d/e/ =d'g|aa az:|
|:g/a/b g/a/b|c'b f/^e/f|c'b c'b|g'e' b/^a/b|
g/a/b g/a/b|c'b f/^e/f|c'b ag/f/|ee ez:|

